X:3
T:Mrs Isa Workman
C:Hamilton M. Workman
B:William Livingstone Volume 1
H:
O:Kevin Fraser
Z:Kevin Fraser
Q:1/4=90
K:HP
M:2/4
L:1/16
R:March
U: R = ///
U: r = //
U: V = !accent!
V:M gstem=up stem=down name="Melody" sname="Melody" 
V:H gstem=up stem=down name="Harmony" sname="Harmony"
V:C gstem=up stem=down name="C-Harmony" sname="C-Harmony"
V:S gstem=up stem=down clef=none dyn=up name="Snare" sname="Snare"
V:B gstem=up stem=down clef=none dyn=up name="Bass" sname="Bass"
V:T gstem=up stem=down clef=none dyn=up name="Tenor" sname="Tenor"
V:BB gstem=up stem=down name="Brass Bass" sname="Bass" transpose=-1  octave=-2 clef=bass
V:BC gstem=up stem=down name="Brass Chord" sname="ABCD-D" transpose=-1
V:BD gstem=up stem=down name="Brass Chord 2" sname="ABCD-B" transpose=-1
V:P gstem=up stem=down name="Piano" sname="Piano" transpose=0 octave=-1
I:MIDI=program 110
%%MIDI gracedivider 4
% %score {M BC BD BB}
% %MIDI program 109 #bagpipes
%%MIDI vol 100
[V:M] [: {gef}e>c | {g}A{GdGe}A>{d}B {AGAG}A2{g}c<e | {gfg}f>ea>e {gfg}f>e{g}c<{d}A | {g}c2{GdGe}A>{d}B {gfg}f>ea>f | {gef}e>c{g}B<{d}A {GdG}B2{gef}e>c |
w: 
[V:M]               {g}A{GdGe}A>{d}B {AGAG}A2{g}c<e | {gfg}f>ea>e {gfg}f>e{g}c<{d}A | {g}c<e{g}d<f {g}B>{d}ca>e | {gcd}c2{e}A2 {GAG}A2 :| 
w:
[V:M] [: {g}f>g | {ag}a2>e {gfg}f>e{A}e>f| {g}c<e{gfg}f>e a>e{g}c<{d}A| {ag}a>ga>e {gfg}f>e{A}e>f | {gef}e>c{g}B<{d}A {GdG}B2{gef}e>c |
w: 
[V:M]             {ag}a2>e {gfg}f>e{A}e>f| {g}c<e{gfg}f>e a>e{g}c<{d}A | {g}c<e{g}d<f {g}B>{d}ca>e | {gcd}c2{e}A2 {GAG}A2 :| 
w:
[V:M] [: {gef}e>c | {g}A>{d}c{e}B<{d}c {g}A>f{g}e<f | {g}d>f{g}c<e a>e{g}c<{g}A | {g}c2{GdGe}A>{d}c {gfg}f>ea>f | {gef}e>c{g}B<{d}A {GdG}B2{gef}e>c |
w:
[V:M]               {g}A>{d}c{e}B<{d}c {g}A>f{g}e<f | {g}d>f{g}c<e a>e{g}c<{g}A | {g}c<e{g}d<f {g}B>{d}ca>e | {gcd}c2{e}A2 {GAG}A2 :|
w:
[V:M] [: {g}f>g | {ag}a>e{g}f<a {gfg}f>e{A}e>f| {g}c<e{g}A>{d}c a>e{g}c<{d}A| {ag}a>ga>e {gfg}f>e{A}e>f | {gef}e>c{g}B<{d}A {GdG}B2{gef}e>c |
w: 
[V:M]             {ag}a>e{g}f<a {gfg}f>e{A}e>f| {g}c<e{g}A>{d}c a>e{g}c<{d}A | {g}c<e{g}d<f {g}B>{d}ca>e | {gcd}c2{e}A2 {GAG}A2 :| 
w:

